src/icons/solid/chimney.svg

<svg xmlns="http://www.w3.org/2000/svg" viewBox="0 0 448 512"><!--! Font Awesome Pro 6.5.2 by @fontawesome - https://fontawesome.com License - https://fontawesome.com/license (Commercial License) Copyright 2024 Fonticons, Inc. --><path d="M0 64C0 46.3 14.3 32 32 32H416c17.7 0 32 14.3 32 32v64c0 17.7-14.3 32-32 32H32c-17.7 0-32-14.3-32-32V64zM32 192h96V320H32V192zm384 0V320H160V192H416zM288 352V480H32V352H288zm128 0V480H320V352h96z"/></svg>

<svg xmlns="http://www.w3.org/2000/svg" viewBox="0 0 448 512"><!--! Font Awesome Pro 6.7.2 by @fontawesome - https://fontawesome.com License - https://fontawesome.com/license (Commercial License) Copyright 2024 Fonticons, Inc. --><path d="M0 64C0 46.3 14.3 32 32 32l384 0c17.7 0 32 14.3 32 32l0 64c0 17.7-14.3 32-32 32L32 160c-17.7 0-32-14.3-32-32L0 64zM32 192l96 0 0 128-96 0 0-128zm384 0l0 128-256 0 0-128 256 0zM288 352l0 128L32 480l0-128 256 0zm128 0l0 128-96 0 0-128 96 0z"/></svg>
